assets/images/script/p-2-top.svg

<svg fill="none" height="239" viewBox="0 0 364 239" width="364" xmlns="http://www.w3.org/2000/svg"><path d="m67.8838 143.012c12.609 1.261 23.5214 8.61 36.6932 9.543 22.771 1.614 50.106-5.328 67.764-20.27 13.093-11.078 9.398-22.679-4.29-30.849-27.685-16.5238-61.512-18.2549-92.9173-18.3464-22.5192-.0657-43.6463 2.1784-65.1012 9.0993-4.10515 1.3243-11.53177 6.8741-4.88254 2.4413 47.77354-31.849 97.82404-61.7588 152.69204-79.8968 21.265-7.02991 48.786-15.762 71.241-9.09937 18.678 5.54187 19.262 28.14837 16.867 44.31317-3.506 23.6675-12.863 46.8739-19.308 69.8358-8.353 29.758-15.967 62.637-13.02 93.805.741 7.848 3.811 29.596 16.053 20.415 22.553-16.915 40.974-36.068 64.583-52.004 17.8-12.015 38.912-24.496 60.811-26.706 5.781-.584 6.673 1.893 4.438 6.362" stroke="#000" stroke-linecap="round" stroke-width="5"/></svg>

<svg width="364" height="239" viewBox="0 0 364 239" fill="none" xmlns="http://www.w3.org/2000/svg">
<path d="M67.8838 143.012C80.4928 144.273 91.4052 151.622 104.577 152.555C127.348 154.169 154.683 147.227 172.341 132.285C185.434 121.207 181.739 109.606 168.051 101.436C140.366 84.9122 106.539 83.1811 75.1337 83.0896C52.6145 83.0239 31.4874 85.268 10.0325 92.1889C5.92735 93.5132 -1.49927 99.063 5.14996 94.6302C52.9235 62.7812 102.974 32.8714 157.842 14.7334C179.107 7.70349 206.628 -1.0286 229.083 5.63403C247.761 11.1759 248.345 33.7824 245.95 49.9472C242.444 73.6147 233.087 96.8211 226.642 119.783C218.289 149.541 210.675 182.42 213.622 213.588C214.363 221.436 217.433 243.184 229.675 234.003C252.228 217.088 270.649 197.935 294.258 181.999C312.058 169.984 333.17 157.503 355.069 155.293C360.85 154.709 361.742 157.186 359.507 161.655" stroke="black" stroke-width="5" stroke-linecap="round"/>
</svg>
